SFASUI/public/images/closepadding.svg

<svg width="16" height="20" viewBox="0 0 16 20" fill="none" xmlns="http://www.w3.org/2000/svg">
<path d="M8.88173 11.9864L13.8557 7.0257C13.954 6.91123 14.0054 6.76398 13.9996 6.61338C13.9937 6.46278 13.9311 6.31992 13.8243 6.21335C13.7174 6.10677 13.5742 6.04434 13.4232 6.03852C13.2722 6.03271 13.1245 6.08393 13.0097 6.18197L8.03573 11.1427L3.06173 6.17598C2.94874 6.0633 2.79551 6 2.63573 6C2.47595 6 2.32271 6.0633 2.20973 6.17598C2.09674 6.28866 2.03327 6.44149 2.03327 6.60084C2.03327 6.7602 2.09674 6.91302 2.20973 7.0257L7.18973 11.9864L2.20973 16.9471C2.14692 17.0007 2.0959 17.0668 2.05989 17.141C2.02388 17.2152 2.00364 17.2961 2.00045 17.3785C1.99726 17.4609 2.01118 17.5431 2.04134 17.6199C2.07151 17.6967 2.11726 17.7664 2.17574 17.8247C2.23421 17.8831 2.30414 17.9287 2.38113 17.9588C2.45813 17.9889 2.54053 18.0027 2.62316 17.9996C2.70579 17.9964 2.78687 17.9762 2.86131 17.9403C2.93575 17.9044 3.00194 17.8535 3.05573 17.7908L8.03573 12.8301L13.0097 17.7908C13.1245 17.8889 13.2722 17.9401 13.4232 17.9343C13.5742 17.9285 13.7174 17.866 13.8243 17.7595C13.9311 17.6529 13.9937 17.51 13.9996 17.3594C14.0054 17.2088 13.954 17.0616 13.8557 16.9471L8.88173 11.9864Z" fill="#4B3A5A"/>
</svg>

<svg width="16" height="20" fill="none" xmlns="http://www.w3.org/2000/svg"><path d="m8.882 11.986 4.974-4.96a.598.598 0 0 0-.433-.987.601.601 0 0 0-.413.143l-4.974 4.96-4.974-4.966a.603.603 0 0 0-1.029.425.6.6 0 0 0 .177.425l4.98 4.96-4.98 4.961a.598.598 0 1 0 .846.844l4.98-4.96 4.974 4.96a.601.601 0 0 0 .99-.432.598.598 0 0 0-.144-.412l-4.974-4.96Z" fill="#4B3A5A"/></svg>
